base/lib/resources/icons_svg/edit_off.svg

<?xml version="1.0" encoding="UTF-8" standalone="no"?>
<!-- Created with Inkscape (http://www.inkscape.org/) -->

<svg
   xmlns:dc="http://purl.org/dc/elements/1.1/"
   xmlns:cc="http://creativecommons.org/ns#"
   xmlns:rdf="http://www.w3.org/1999/02/22-rdf-syntax-ns#"
   xmlns:svg="http://www.w3.org/2000/svg"
   xmlns="http://www.w3.org/2000/svg"
   xmlns:sodipodi="http://sodipodi.sourceforge.net/DTD/sodipodi-0.dtd"
   xmlns:inkscape="http://www.inkscape.org/namespaces/inkscape"
   id="svg3771"
   version="1.1"
   inkscape:version="0.91 r13725"
   xml:space="preserve"
   width="30"
   height="30"
   viewBox="0 0 30 30"
   sodipodi:docname="cut_off.svg"><metadata
     id="metadata3777"><rdf:RDF><cc:Work
         rdf:about=""><dc:format>image/svg+xml</dc:format><dc:type
           rdf:resource="http://purl.org/dc/dcmitype/StillImage" /><dc:title></dc:title></cc:Work></rdf:RDF></metadata><defs
     id="defs3775"><clipPath
       clipPathUnits="userSpaceOnUse"
       id="clipPath3789"><path
         d="M 0,24 24,24 24,0 0,0 0,24 Z"
         id="path3791"
         inkscape:connector-curvature="0" /></clipPath></defs><sodipodi:namedview
     pagecolor="#ffffff"
     bordercolor="#666666"
     borderopacity="1"
     objecttolerance="10"
     gridtolerance="10"
     guidetolerance="10"
     inkscape:pageopacity="0"
     inkscape:pageshadow="2"
     inkscape:window-width="774"
     inkscape:window-height="480"
     id="namedview3773"
     showgrid="false"
     inkscape:zoom="7.8666667"
     inkscape:cx="15"
     inkscape:cy="15"
     inkscape:window-x="603"
     inkscape:window-y="167"
     inkscape:window-maximized="0"
     inkscape:current-layer="g3779" /><g
     id="g3779"
     inkscape:groupmode="layer"
     inkscape:label="boutons_iscore"
     transform="matrix(1.25,0,0,-1.25,0,30)"><path
       d="m 0.499,0.499 23,0 0,23 -23,0 0,-23 z"
       style="fill:#3e3e3e;fill-opacity:1;fill-rule:nonzero;stroke:none"
       id="path3781"
       inkscape:connector-curvature="0" /><path
       d="M 0,0 24,0 24,24 0,24 0,0 Z m 1,23 22.001,0 0,-22.001 L 1,0.999 1,23 Z"
       style="fill:#000000;fill-opacity:1;fill-rule:nonzero;stroke:none"
       id="path3783"
       inkscape:connector-curvature="0" /><g
       id="g3785"><g
         id="g3787"
         clip-path="url(#clipPath3789)"><g
           id="g3793"
           transform="translate(8.4471,8.1113)"><path
             d="M 0,0 C 0,0.707 0.402,1.275 0.9,1.275 1.4,1.275 1.803,0.707 1.803,0 1.803,-0.719 1.4,-1.287 0.9,-1.287 0.402,-1.287 0,-0.719 0,0 m -0.822,0.025 c 0,-1.207 0.787,-2.187 1.75,-2.187 0.963,0 1.75,0.98 1.75,2.187 0,1.207 -0.787,2.188 -1.75,2.188 -0.963,0 -1.75,-0.981 -1.75,-2.188 M 5.241,0 c 0,0.707 0.411,1.275 0.909,1.275 C 6.65,1.275 7.053,0.707 7.053,0 7.053,-0.719 6.65,-1.287 6.15,-1.287 5.652,-1.287 5.241,-0.719 5.241,0 M 4.428,0.025 c 0,-1.207 0.779,-2.187 1.75,-2.187 0.963,0 1.75,0.98 1.75,2.187 0,1.207 -0.787,2.188 -1.75,2.188 -0.971,0 -1.75,-0.981 -1.75,-2.188 M 3.885,3.998 C 3.736,3.691 3.369,3.699 3.211,3.998 3.063,4.305 0.85,8.73 0.244,9.939 0.053,9.824 -0.053,9.555 0.035,9.336 0.193,8.924 2.932,2.178 3.133,1.68 3.324,1.225 3.779,1.215 3.973,1.68 4.252,2.361 6.947,9.039 7.061,9.318 7.166,9.58 7.043,9.834 6.852,9.939 6.283,8.793 4.096,4.418 3.885,3.998"
             style="fill:#ffffff;fill-opacity:1;fill-rule:nonzero;stroke:none"
             id="path3795"
             inkscape:connector-curvature="0" /></g></g></g></g></svg>

<?xml version="1.0" encoding="utf-8"?>
<!-- Generator: Adobe Illustrator 21.0.2, SVG Export Plug-In . SVG Version: 6.00 Build 0)  -->
<svg version="1.1"
	 id="svg3771" inkscape:version="0.91 r13725" sodipodi:docname="cut_off.svg" xmlns:cc="http://creativecommons.org/ns#" xmlns:dc="http://purl.org/dc/elements/1.1/" xmlns:inkscape="http://www.inkscape.org/namespaces/inkscape" xmlns:rdf="http://www.w3.org/1999/02/22-rdf-syntax-ns#" xmlns:sodipodi="http://sodipodi.sourceforge.net/DTD/sodipodi-0.dtd" xmlns:svg="http://www.w3.org/2000/svg"
	 xmlns="http://www.w3.org/2000/svg" xmlns:xlink="http://www.w3.org/1999/xlink" x="0px" y="0px" viewBox="0 0 30 30"
	 style="enable-background:new 0 0 30 30;" xml:space="preserve">
<style type="text/css">
	.st0{display:none;fill:#3E3E3E;}
	.st1{display:none;}
	.st2{clip-path:url(#SVGID_2_);}
	.st3{fill:#FFFFFF;}
</style>
<sodipodi:namedview  bordercolor="#666666" borderopacity="1" gridtolerance="10" guidetolerance="10" id="namedview3773" inkscape:current-layer="g3779" inkscape:cx="15" inkscape:cy="15" inkscape:pageopacity="0" inkscape:pageshadow="2" inkscape:window-height="480" inkscape:window-maximized="0" inkscape:window-width="774" inkscape:window-x="603" inkscape:window-y="167" inkscape:zoom="7.8666667" objecttolerance="10" pagecolor="#ffffff" showgrid="false">
	</sodipodi:namedview>
<g id="g3779" transform="matrix(1.25,0,0,-1.25,0,30)" inkscape:groupmode="layer" inkscape:label="boutons_iscore">
	<path id="path3781" inkscape:connector-curvature="0" class="st0" d="M0.5,0.5h23v23h-23V0.5z"/>
	<path id="path3783" inkscape:connector-curvature="0" class="st1" d="M0,0h24v24H0V0z M1,23h22V1H1V23z"/>
	<g id="g3785">
		<g>
			<g>
				<defs>
					<rect id="SVGID_1_" x="-6.8" y="-6.8" width="37.5" height="37.5"/>
				</defs>
				<clipPath id="SVGID_2_">
					<use xlink:href="#SVGID_1_"  style="overflow:visible;"/>
				</clipPath>
				<g id="g3787" class="st2">
					<g id="g3793" transform="translate(8.4471,8.1113)">
						<path id="path3795" inkscape:connector-curvature="0" class="st3" d="M0,0c0,0.7,0.4,1.3,0.9,1.3S1.8,0.7,1.8,0
							S1.4-1.3,0.9-1.3S0-0.7,0,0 M-0.8,0C-0.8-1.2,0-2.2,1-2.2s1.8,1,1.8,2.2S1.9,2.2,0.9,2.2S-0.8,1.2-0.8,0 M5.2,0
							c0,0.7,0.4,1.3,0.9,1.3S7,0.7,7,0S6.6-1.3,6.1-1.3C5.7-1.3,5.2-0.7,5.2,0 M4.4,0c0-1.2,0.8-2.2,1.8-2.2S8-1.2,8,0
							S7.1,2.2,6.2,2.2C5.2,2.2,4.4,1.2,4.4,0 M3.9,4C3.7,3.7,3.4,3.7,3.2,4c-0.1,0.3-2.4,4.7-3,5.9C0.1,9.8-0.1,9.6,0,9.3
							c0.2-0.4,2.9-7.2,3.1-7.7c0.2-0.5,0.6-0.5,0.8,0C4.2,2.3,6.9,9,7,9.2c0.1,0.3,0,0.5-0.2,0.6C6.3,8.8,4.1,4.4,3.9,4"/>
					</g>
				</g>
			</g>
		</g>
	</g>
</g>
</svg>
